X: 3
T: The Fermoy Lasses
R: reel
M: 4/4
L: 1/8
K: Emin
cE~E2 cAGE|~D2AD E/F/GAB|~c3B cded|~d2AG FGAB |cEE2 cAGE| ~D2AD E/F/GAB|c/d/cBd cded|~cABG AGEF ||


Tune 219	Setting 25929

